X: 1
T: MANHATTAN -- HORNPIPE
B: Ryan's Mammoth Collection of Fiddle Tunes
R: hornpipe
M: 2/4
L: 1/16
Z: Contributed 20000425155505 by John Chambers jchambers:casc.com
K: Bb
vdc \
| v.B2vFB DBFB | GBFB DBFB | cBcd edcB | Af=eg f_edc |
| v.B2vFB DBFB | GBFB DBFB | Agfe dcBA | B2d2B2 :|
|: uf2 \
| vbfdf gfdf | bfdf gfdf | bagf edcB | ABcd .c2.f2 |
|  bfdf gfdf | =efga bg_eg | f=efg f_edc | B2d2B2 :|
